apps/ui-icons/svgs/settings.svg

<svg viewBox="0 0 24 24" width="24" height="24"  fill="none" xmlns="http://www.w3.org/2000/svg">
<path fill-rule="evenodd" clip-rule="evenodd" d="M11.0705 2C10.4351 2 9.88615 2.4114 9.7539 2.98678L9.62222 3.55973C9.42848 4.40267 8.75014 5.06779 7.94538 5.50105C7.13739 5.93605 6.1843 6.14178 5.29529 5.87457L4.69117 5.69298C4.08677 5.51131 3.42744 5.74567 3.10971 6.25512L2.18039 7.74518C1.86266 8.25463 1.97307 8.90039 2.44523 9.2941L2.97446 9.7354C3.64423 10.2939 3.9233 11.1343 3.9233 11.9687C3.9233 12.8362 3.63756 13.7118 2.94126 14.2924L2.44523 14.7061C1.97307 15.0998 1.86266 15.7455 2.18039 16.255L3.10971 17.745C3.42744 18.2545 4.08677 18.4888 4.69117 18.3072L5.4024 18.0934C6.26176 17.8351 7.18347 18.029 7.96585 18.4474C8.7509 18.8672 9.40993 19.5159 9.5986 20.3368L9.75406 21.0132C9.88631 21.5886 10.4352 22 11.0707 22H12.9293C13.5648 22 14.1137 21.5886 14.2459 21.0132L14.4015 20.3366C14.5901 19.5158 15.2491 18.8671 16.034 18.4473C16.8163 18.029 17.738 17.835 18.5973 18.0933L19.3088 18.3072C19.9132 18.4888 20.5726 18.2545 20.8903 17.745L21.8196 16.255C22.1373 15.7455 22.0269 15.0998 21.5548 14.7061L21.0583 14.2921C20.3621 13.7116 20.0764 12.8361 20.0764 11.9687C20.0764 11.1344 20.3555 10.2941 21.0251 9.73574L21.5548 9.2941C22.0269 8.90039 22.1373 8.25463 21.8196 7.74518L20.8903 6.25512C20.5726 5.74567 19.9132 5.51131 19.3088 5.69298L18.7046 5.8746C17.8155 6.14184 16.8624 5.93609 16.0544 5.50106C15.2496 5.06778 14.5712 4.40263 14.3774 3.55966L14.2458 2.98678C14.1135 2.4114 13.5646 2 12.9292 2H11.0705ZM7.96145 11.9688C7.96145 9.90422 9.76945 8 11.9997 8C14.23 8 16.038 9.90422 16.038 11.9688C16.038 14.0334 14.23 16 11.9997 16C9.76945 16 7.96145 14.0334 7.96145 11.9688Z" fill="#171D26"/>
</svg>

<svg xmlns="http://www.w3.org/2000/svg" width="24" height="24" fill="none" viewBox="0 0 24 24">
  <path fill="#171D26" fill-rule="evenodd" d="M11.07 2c-.635 0-1.184.411-1.316.987l-.132.573c-.194.843-.872 1.508-1.677 1.941-.808.435-1.76.64-2.65.374l-.604-.182c-.604-.182-1.264.053-1.581.562l-.93 1.49c-.317.51-.207 1.155.265 1.55l.53.44c.67.559.948 1.4.948 2.234 0 .867-.285 1.743-.982 2.323l-.496.414c-.472.394-.582 1.04-.265 1.549l.93 1.49c.317.51.977.744 1.581.562l.711-.214c.86-.258 1.781-.064 2.564.354.785.42 1.444 1.069 1.633 1.89l.155.676c.132.576.681.987 1.317.987h1.858c.636 0 1.185-.411 1.317-.987l.155-.676c.19-.821.848-1.47 1.633-1.89.782-.418 1.704-.612 2.563-.354l.712.214c.604.182 1.264-.052 1.581-.562l.93-1.49c.317-.51.207-1.155-.265-1.549l-.497-.414c-.696-.58-.982-1.456-.982-2.323 0-.835.28-1.675.95-2.233l.529-.442c.472-.394.582-1.04.265-1.549l-.93-1.49c-.317-.51-.977-.744-1.581-.562l-.604.182c-.89.267-1.843.061-2.65-.374-.805-.433-1.484-1.098-1.678-1.941l-.131-.573C14.113 2.41 13.565 2 12.929 2H11.07Zm-3.109 9.969C7.961 9.904 9.77 8 12 8c2.23 0 4.038 1.904 4.038 3.969C16.038 14.033 14.23 16 12 16c-2.23 0-4.039-1.967-4.039-4.031Z" clip-rule="evenodd"/>
</svg>
